dist/img/logo.svg

<svg width="177" height="50" viewBox="0 0 177 50" fill="none" xmlns="http://www.w3.org/2000/svg">
<path d="M1.674 23V4.1H6.912V18.41H16.065V23H1.674ZM18.3117 23V4.1H23.8467L28.3557 11.417L32.8647 4.1H38.3997V23H33.1887V12.146L28.3557 19.544H28.2477L23.4417 12.2V23H18.3117Z" fill="#83C150"/>
<path d="M46.674 23V4.1H51.912V18.41H61.065V23H46.674ZM78.9976 20.516C77.0536 22.424 74.6326 23.378 71.7346 23.378C68.8366 23.378 66.4156 22.433 64.4716 20.543C62.5456 18.635 61.5826 16.304 61.5826 13.55C61.5826 10.814 62.5546 8.492 64.4986 6.584C66.4606 4.676 68.8906 3.722 71.7886 3.722C74.6866 3.722 77.0986 4.676 79.0246 6.584C80.9686 8.474 81.9406 10.796 81.9406 13.55C81.9406 16.286 80.9596 18.608 78.9976 20.516ZM71.7886 18.653C73.2106 18.653 74.3626 18.158 75.2446 17.168C76.1446 16.178 76.5946 14.972 76.5946 13.55C76.5946 12.146 76.1356 10.949 75.2176 9.959C74.2996 8.951 73.1386 8.447 71.7346 8.447C70.3306 8.447 69.1786 8.942 68.2786 9.932C67.3966 10.922 66.9556 12.128 66.9556 13.55C66.9556 14.954 67.4056 16.16 68.3056 17.168C69.2236 18.158 70.3846 18.653 71.7886 18.653ZM94.3081 23.378C91.3381 23.378 88.8811 22.46 86.9371 20.624C84.9931 18.77 84.0211 16.412 84.0211 13.55C84.0211 10.778 84.9841 8.447 86.9101 6.557C88.8541 4.667 91.2841 3.722 94.2001 3.722C97.1881 3.722 99.7441 4.64 101.868 6.476L98.7901 10.175C97.3681 8.987 95.8471 8.393 94.2271 8.393C92.8591 8.393 91.7071 8.897 90.7711 9.905C89.8531 10.913 89.3941 12.155 89.3941 13.631C89.3941 15.161 89.8711 16.421 90.8251 17.411C91.7971 18.383 93.0301 18.869 94.5241 18.869C95.7481 18.869 96.7561 18.608 97.5481 18.086V15.791H93.8221V11.957H102.516V20.462C100.158 22.406 97.4221 23.378 94.3081 23.378ZM105.528 23V4.1H110.793V23H105.528ZM121.678 23.324C118.114 23.324 115.162 22.28 112.822 20.192L115.738 16.709C117.628 18.221 119.671 18.977 121.867 18.977C123.307 18.977 124.027 18.527 124.027 17.627C124.027 17.231 123.811 16.907 123.379 16.655C122.947 16.385 122.101 16.106 120.841 15.818C119.689 15.548 118.735 15.287 117.979 15.035C117.241 14.765 116.512 14.414 115.792 13.982C115.09 13.532 114.568 12.965 114.226 12.281C113.884 11.597 113.713 10.778 113.713 9.824C113.713 8.042 114.37 6.593 115.684 5.477C117.016 4.343 118.798 3.776 121.03 3.776C124.126 3.776 126.718 4.613 128.806 6.287L126.187 9.986C124.423 8.744 122.659 8.123 120.895 8.123C120.283 8.123 119.815 8.24 119.491 8.474C119.167 8.708 119.005 9.014 119.005 9.392C119.005 9.824 119.221 10.166 119.653 10.418C120.103 10.67 120.976 10.94 122.272 11.228C124.648 11.75 126.412 12.452 127.564 13.334C128.734 14.198 129.319 15.476 129.319 17.168C129.319 19.076 128.626 20.579 127.24 21.677C125.854 22.775 124 23.324 121.678 23.324ZM135.956 23V8.69H130.286V4.1H146.864V8.69H141.194V23H135.956ZM149.271 23V4.1H154.536V23H149.271ZM167.095 23.378C164.359 23.378 162.046 22.451 160.156 20.597C158.284 18.725 157.348 16.376 157.348 13.55C157.348 10.778 158.293 8.447 160.183 6.557C162.091 4.667 164.467 3.722 167.311 3.722C170.677 3.722 173.323 5.054 175.249 7.718L171.415 10.688C170.245 9.23 168.859 8.501 167.257 8.501C165.943 8.501 164.863 8.987 164.017 9.959C163.171 10.931 162.748 12.128 162.748 13.55C162.748 14.99 163.171 16.196 164.017 17.168C164.863 18.122 165.943 18.599 167.257 18.599C168.175 18.599 168.958 18.41 169.606 18.032C170.254 17.636 170.893 17.06 171.523 16.304L175.465 19.112C174.475 20.462 173.323 21.515 172.009 22.271C170.695 23.009 169.057 23.378 167.095 23.378Z" fill="#393939"/>
<path d="M6.908 41.312H7.856V40.388C10.568 40.388 12.104 38.948 12.104 36.764C12.104 34.58 10.556 33.152 7.856 33.152V32.324H6.908V33.152C4.208 33.152 2.66 34.58 2.66 36.764C2.66 38.948 4.196 40.388 6.908 40.388V41.312ZM6.908 39.524C4.832 39.524 3.644 38.564 3.644 36.776C3.644 35 4.832 34.016 6.908 34.016V39.524ZM7.856 39.524V34.016C9.932 34.016 11.12 35 11.12 36.776C11.12 38.564 9.932 39.524 7.856 39.524ZM15.3135 41.144C16.3095 41.144 17.1975 40.616 17.8815 39.236L21.2055 32.6H20.1735L17.4975 38.084L14.4015 32.6H13.3215L17.0175 39.032C16.5255 39.968 15.9135 40.292 15.3375 40.292C14.8935 40.292 14.6055 40.22 14.2695 40.04L13.8975 40.796C14.3415 41.024 14.7615 41.144 15.3135 41.144ZM22.7837 41.096C24.0797 41.096 25.2797 40.268 25.2797 34.376V33.464H28.8557V41H29.8037V32.6H24.3677V34.124C24.3677 39.848 23.2757 40.244 22.6277 40.244C22.3637 40.244 22.0157 40.184 21.8837 40.124L21.6917 40.892C21.9077 40.976 22.4117 41.096 22.7837 41.096ZM36.0141 41.312H36.9621V40.388C39.6741 40.388 41.2101 38.948 41.2101 36.764C41.2101 34.58 39.6621 33.152 36.9621 33.152V32.324H36.0141V33.152C33.3141 33.152 31.7661 34.58 31.7661 36.764C31.7661 38.948 33.3021 40.388 36.0141 40.388V41.312ZM36.0141 39.524C33.9381 39.524 32.7501 38.564 32.7501 36.776C32.7501 35 33.9381 34.016 36.0141 34.016V39.524ZM36.9621 39.524V34.016C39.0381 34.016 40.2261 35 40.2261 36.776C40.2261 38.564 39.0381 39.524 36.9621 39.524ZM43.1836 41H44.1076L49.1116 34.028V41H50.0476V32.6H49.1476L44.1316 39.572V32.6H43.1836V41ZM52.382 41.096C53.678 41.096 54.878 40.268 54.878 34.376V33.464H58.454V41H59.402V32.6H53.966V34.124C53.966 39.848 52.874 40.244 52.226 40.244C51.962 40.244 51.614 40.184 51.482 40.124L51.29 40.892C51.506 40.976 52.01 41.096 52.382 41.096ZM61.8924 41H62.8164V34.208L65.8764 38.696H65.9244L68.9844 34.196V41H69.9324V32.6H68.9724L65.9124 37.184L62.8524 32.6H61.8924V41ZM72.4303 41H78.5623V40.136H73.3783V37.196H77.9623V36.332H73.3783V33.464H78.5023V32.6H72.4303V41ZM80.5894 41H81.5374V37.22H86.3854V41H87.3334V32.6H86.3854V36.332H81.5374V32.6H80.5894V41ZM92.0466 41H93.0066V33.464H95.8266V32.6H89.2266V33.464H92.0466V41ZM97.3198 37.88H100.656V36.908H97.3198V37.88ZM106.646 41.144C109.202 41.144 110.942 39.116 110.942 36.8C110.942 34.46 109.226 32.456 106.67 32.456C104.114 32.456 102.374 34.484 102.374 36.8C102.374 39.14 104.09 41.144 106.646 41.144ZM106.67 40.268C104.75 40.268 103.358 38.708 103.358 36.8C103.358 34.868 104.726 33.332 106.646 33.332C108.566 33.332 109.958 34.892 109.958 36.8C109.958 38.732 108.59 40.268 106.67 40.268ZM113.062 41H114.01V33.464H118.738V41H119.686V32.6H113.062V41ZM122.182 41H128.314V40.136H123.13V37.196H127.714V36.332H123.13V33.464H128.254V32.6H122.182V41ZM130.341 41H131.289V38.036H133.329C135.117 38.036 136.629 37.1 136.629 35.288C136.629 33.608 135.381 32.6 133.485 32.6H130.341V41ZM131.289 37.172V33.476H133.413C134.769 33.476 135.669 34.1 135.669 35.3C135.669 36.428 134.757 37.172 133.365 37.172H131.289ZM137.756 41H138.728L139.724 38.78H144.296L145.28 41H146.3L142.472 32.54H141.584L137.756 41ZM140.096 37.928L142.016 33.644L143.924 37.928H140.096ZM150.297 41H151.257V33.464H154.077V32.6H147.477V33.464H150.297V41ZM159.878 41.144C162.434 41.144 164.174 39.116 164.174 36.8C164.174 34.46 162.458 32.456 159.902 32.456C157.346 32.456 155.606 34.484 155.606 36.8C155.606 39.14 157.322 41.144 159.878 41.144ZM159.902 40.268C157.982 40.268 156.59 38.708 156.59 36.8C156.59 34.868 157.958 33.332 159.878 33.332C161.798 33.332 163.19 34.892 163.19 36.8C163.19 38.732 161.822 40.268 159.902 40.268ZM166.293 41H167.241V38.036H169.281C171.069 38.036 172.581 37.1 172.581 35.288C172.581 33.608 171.333 32.6 169.437 32.6H166.293V41ZM167.241 37.172V33.476H169.365C170.721 33.476 171.621 34.1 171.621 35.3C171.621 36.428 170.709 37.172 169.317 37.172H167.241Z" fill="#393939"/>
</svg>

<svg width="177" height="50" fill="none" xmlns="http://www.w3.org/2000/svg"><path d="M1.674 23V4.1h5.238v14.31h9.153V23H1.674zm16.638 0V4.1h5.535l4.509 7.317L32.865 4.1H38.4V23h-5.211V12.146l-4.833 7.398h-.108L23.442 12.2V23h-5.13z" fill="#83C150"/><path d="M46.674 23V4.1h5.238v14.31h9.153V23H46.674zm32.324-2.484c-1.944 1.908-4.365 2.862-7.263 2.862-2.898 0-5.32-.945-7.263-2.835-1.926-1.908-2.89-4.239-2.89-6.993 0-2.736.973-5.058 2.917-6.966 1.962-1.908 4.392-2.862 7.29-2.862 2.898 0 5.31.954 7.236 2.862 1.944 1.89 2.916 4.212 2.916 6.966 0 2.736-.981 5.058-2.943 6.966zm-7.21-1.863c1.423 0 2.575-.495 3.457-1.485.9-.99 1.35-2.196 1.35-3.618 0-1.404-.46-2.601-1.377-3.591-.918-1.008-2.08-1.512-3.483-1.512-1.404 0-2.556.495-3.456 1.485-.882.99-1.323 2.196-1.323 3.618 0 1.404.45 2.61 1.35 3.618.918.99 2.079 1.485 3.483 1.485zm22.52 4.725c-2.97 0-5.427-.918-7.37-2.754-1.945-1.854-2.917-4.212-2.917-7.074 0-2.772.963-5.103 2.89-6.993 1.943-1.89 4.373-2.835 7.29-2.835 2.987 0 5.543.918 7.667 2.754l-3.078 3.699c-1.422-1.188-2.943-1.782-4.563-1.782-1.368 0-2.52.504-3.456 1.512-.918 1.008-1.377 2.25-1.377 3.726 0 1.53.477 2.79 1.431 3.78.972.972 2.205 1.458 3.7 1.458 1.223 0 2.231-.261 3.023-.783v-2.295h-3.726v-3.834h8.694v8.505c-2.358 1.944-5.094 2.916-8.208 2.916zm11.22-.378V4.1h5.265V23h-5.265zm16.15.324c-3.564 0-6.516-1.044-8.856-3.132l2.916-3.483c1.89 1.512 3.933 2.268 6.129 2.268 1.44 0 2.16-.45 2.16-1.35 0-.396-.216-.72-.648-.972-.432-.27-1.278-.549-2.538-.837a33.374 33.374 0 01-2.862-.783 12.797 12.797 0 01-2.187-1.053c-.702-.45-1.224-1.017-1.566-1.701-.342-.684-.513-1.503-.513-2.457 0-1.782.657-3.231 1.971-4.347 1.332-1.134 3.114-1.701 5.346-1.701 3.096 0 5.688.837 7.776 2.511l-2.619 3.699c-1.764-1.242-3.528-1.863-5.292-1.863-.612 0-1.08.117-1.404.351-.324.234-.486.54-.486.918 0 .432.216.774.648 1.026.45.252 1.323.522 2.619.81 2.376.522 4.14 1.224 5.292 2.106 1.17.864 1.755 2.142 1.755 3.834 0 1.908-.693 3.411-2.079 4.509-1.386 1.098-3.24 1.647-5.562 1.647zM135.956 23V8.69h-5.67V4.1h16.578v4.59h-5.67V23h-5.238zm13.315 0V4.1h5.265V23h-5.265zm17.824.378c-2.736 0-5.049-.927-6.939-2.781-1.872-1.872-2.808-4.221-2.808-7.047 0-2.772.945-5.103 2.835-6.993 1.908-1.89 4.284-2.835 7.128-2.835 3.366 0 6.012 1.332 7.938 3.996l-3.834 2.97c-1.17-1.458-2.556-2.187-4.158-2.187-1.314 0-2.394.486-3.24 1.458-.846.972-1.269 2.169-1.269 3.591 0 1.44.423 2.646 1.269 3.618.846.954 1.926 1.431 3.24 1.431.918 0 1.701-.189 2.349-.567.648-.396 1.287-.972 1.917-1.728l3.942 2.808c-.99 1.35-2.142 2.403-3.456 3.159-1.314.738-2.952 1.107-4.914 1.107zM6.908 41.312h.948v-.924c2.712 0 4.248-1.44 4.248-3.624s-1.548-3.612-4.248-3.612v-.828h-.948v.828c-2.7 0-4.248 1.428-4.248 3.612s1.536 3.624 4.248 3.624v.924zm0-1.788c-2.076 0-3.264-.96-3.264-2.748 0-1.776 1.188-2.76 3.264-2.76v5.508zm.948 0v-5.508c2.076 0 3.264.984 3.264 2.76 0 1.788-1.188 2.748-3.264 2.748zm7.457 1.62c.996 0 1.885-.528 2.568-1.908l3.325-6.636h-1.032l-2.677 5.484-3.095-5.484h-1.08l3.695 6.432c-.491.936-1.103 1.26-1.68 1.26-.444 0-.732-.072-1.067-.252l-.372.756a2.91 2.91 0 001.415.348zm7.47-.048c1.297 0 2.497-.828 2.497-6.72v-.912h3.576V41h.948v-8.4h-5.436v1.524c0 5.724-1.092 6.12-1.74 6.12-.264 0-.612-.06-.744-.12l-.192.768c.216.084.72.204 1.092.204zm13.231.216h.948v-.924c2.712 0 4.248-1.44 4.248-3.624s-1.548-3.612-4.248-3.612v-.828h-.948v.828c-2.7 0-4.248 1.428-4.248 3.612s1.536 3.624 4.248 3.624v.924zm0-1.788c-2.076 0-3.264-.96-3.264-2.748 0-1.776 1.188-2.76 3.264-2.76v5.508zm.948 0v-5.508c2.076 0 3.264.984 3.264 2.76 0 1.788-1.188 2.748-3.264 2.748zM43.184 41h.924l5.004-6.972V41h.936v-8.4h-.9l-5.016 6.972V32.6h-.948V41zm9.198.096c1.296 0 2.496-.828 2.496-6.72v-.912h3.576V41h.948v-8.4h-5.436v1.524c0 5.724-1.092 6.12-1.74 6.12-.264 0-.612-.06-.744-.12l-.192.768c.216.084.72.204 1.092.204zm9.51-.096h.924v-6.792l3.06 4.488h.048l3.06-4.5V41h.948v-8.4h-.96l-3.06 4.584-3.06-4.584h-.96V41zm10.538 0h6.132v-.864h-5.184v-2.94h4.584v-.864h-4.584v-2.868h5.124V32.6H72.43V41zm8.16 0h.947v-3.78h4.848V41h.948v-8.4h-.948v3.732h-4.848V32.6h-.948V41zm11.457 0h.96v-7.536h2.82V32.6h-6.6v.864h2.82V41zm5.273-3.12h3.336v-.972H97.32v.972zm9.326 3.264c2.556 0 4.296-2.028 4.296-4.344 0-2.34-1.716-4.344-4.272-4.344s-4.296 2.028-4.296 4.344c0 2.34 1.716 4.344 4.272 4.344zm.024-.876c-1.92 0-3.312-1.56-3.312-3.468 0-1.932 1.368-3.468 3.288-3.468 1.92 0 3.312 1.56 3.312 3.468 0 1.932-1.368 3.468-3.288 3.468zm6.392.732h.948v-7.536h4.728V41h.948v-8.4h-6.624V41zm9.12 0h6.132v-.864h-5.184v-2.94h4.584v-.864h-4.584v-2.868h5.124V32.6h-6.072V41zm8.159 0h.948v-2.964h2.04c1.788 0 3.3-.936 3.3-2.748 0-1.68-1.248-2.688-3.144-2.688h-3.144V41zm.948-3.828v-3.696h2.124c1.356 0 2.256.624 2.256 1.824 0 1.128-.912 1.872-2.304 1.872h-2.076zM137.756 41h.972l.996-2.22h4.572l.984 2.22h1.02l-3.828-8.46h-.888L137.756 41zm2.34-3.072l1.92-4.284 1.908 4.284h-3.828zM150.297 41h.96v-7.536h2.82V32.6h-6.6v.864h2.82V41zm9.581.144c2.556 0 4.296-2.028 4.296-4.344 0-2.34-1.716-4.344-4.272-4.344s-4.296 2.028-4.296 4.344c0 2.34 1.716 4.344 4.272 4.344zm.024-.876c-1.92 0-3.312-1.56-3.312-3.468 0-1.932 1.368-3.468 3.288-3.468 1.92 0 3.312 1.56 3.312 3.468 0 1.932-1.368 3.468-3.288 3.468zm6.391.732h.948v-2.964h2.04c1.788 0 3.3-.936 3.3-2.748 0-1.68-1.248-2.688-3.144-2.688h-3.144V41zm.948-3.828v-3.696h2.124c1.356 0 2.256.624 2.256 1.824 0 1.128-.912 1.872-2.304 1.872h-2.076z" fill="#393939"/></svg>
